assets/svgs/illustration-research.svg

<svg width="200" height="160" viewBox="0 0 200 160" fill="none" xmlns="http://www.w3.org/2000/svg" class="svg__illustration_research">
<path d="M42.1157 125.756L108.196 125.756" stroke="#00E0E0" stroke-width="1.5" class="svg__stroke--help-green-03"/>
<path d="M113.705 125.756L125.719 125.756" stroke="#00E0E0" stroke-width="1.5" class="svg__stroke--help-green-03"/>
<path d="M130.724 125.756L134.729 125.756" stroke="#00E0E0" stroke-width="1.5" class="svg__stroke--help-green-03"/>
<path d="M79.5407 144.154L80.6361 144.723V143.489V126.507V125.757H79.8861H63.127H62.377V126.507V143.489V144.723L63.4723 144.154L71.5065 139.986L79.5407 144.154Z" fill="#0AA5FF" stroke="#0AA5FF" stroke-width="1.5" stroke-linecap="square" class="svg__fill--default-cyan-03 svg__stroke--help-green-03"/>
<path fill-rule="evenodd" clip-rule="evenodd" d="M172.861 152.809H181.286V154.309H174.673C174.739 154.352 174.775 154.373 174.775 154.373H172.334H39.6128C28.2756 154.373 19.085 145.182 19.085 133.845C19.085 122.508 28.2756 113.317 39.6128 113.317H172.334H174.775C174.775 113.317 174.737 113.34 174.665 113.387H181.286V114.887H172.855C170.326 117.376 166.195 123.089 166.195 133.845C166.195 144.608 170.332 150.322 172.861 152.809ZM170.805 152.809C170.3 152.226 169.769 151.546 169.24 150.758C166.928 147.314 164.695 141.891 164.695 133.845C164.695 125.799 166.928 120.376 169.24 116.932C169.767 116.147 170.297 115.468 170.801 114.887H170.71V114.817H39.6128C29.104 114.817 20.585 123.336 20.585 133.845C20.585 144.354 29.104 152.873 39.6128 152.873H170.71V152.809H170.805Z" fill="#0B6AB7" class="svg__fill--primary-blue-03"/>
<path d="M132.497 95.3984L87.4273 95.3984" stroke="#00E0E0" stroke-width="1.5"/>
<path d="M83.9219 95.3984L79.917 95.3984" stroke="#00E0E0" stroke-width="1.5"/>
<path d="M96.7425 105.142L95.7786 105.429V104.424V96.1489V95.3989H96.5286H111.111H111.861V96.1489V104.424V105.429L110.897 105.142L103.82 103.036L96.7425 105.142Z" fill="#0AA5FF" stroke="#0AA5FF" stroke-width="1.5" stroke-linecap="square" class="svg__fill--default-cyan-03 svg__stroke--default-cyan-03"/>
<path fill-rule="evenodd" clip-rule="evenodd" d="M23.3468 113.381H19.0832V114.881H20.9719C20.8919 114.919 20.8488 114.937 20.8488 114.937H23.7726H161.809C169.944 114.937 176.539 108.342 176.539 100.207C176.539 92.0715 169.944 85.4766 161.809 85.4766H23.7726H20.8488C20.8488 85.4766 20.896 85.4964 20.9832 85.5376H19.0832V87.0376H23.3537C25.8862 89.0154 29.429 93.0596 29.429 100.207C29.429 107.361 25.8798 111.406 23.3468 113.381ZM25.6304 113.381C25.8307 113.188 26.0324 112.984 26.2341 112.768C28.603 110.237 30.929 106.199 30.929 100.207C30.929 94.2149 28.603 90.1771 26.2341 87.6457C26.0343 87.4321 25.8344 87.2295 25.6359 87.0376H29.6586V86.9766H161.809C169.116 86.9766 175.039 92.9 175.039 100.207C175.039 107.514 169.116 113.437 161.809 113.437H29.6586V113.381H25.6304Z" fill="#0B6AB7" class="svg__fill--primary-blue-03"/>
<path d="M100.185 6.34668L123.273 15.9103L132.837 38.9991L123.273 62.0878L100.185 71.6515L77.0959 62.0878L67.5322 38.9991L77.0959 15.9103L100.185 6.34668Z" stroke="#0B6AB7" stroke-width="1.5" class="svg__stroke-primary-blue-03"/>
<path d="M100.185 10.781L120.138 19.046L128.403 38.9994M100.185 67.2178L80.2313 58.9528L71.9663 38.9994" stroke="#FFD600" stroke-width="1.5" class="svg__stroke--secondary-yellow-03"/>
<path d="M105.382 42.7863L104.675 42.0791L103.26 43.4933L103.967 44.2004L105.382 42.7863ZM109.897 50.1309L110.604 50.8381L112.018 49.424L111.311 48.7168L109.897 50.1309ZM102.305 46.2775C107.255 44.1739 109.562 38.4563 107.458 33.5067L105.618 34.289C107.289 38.222 105.456 42.7653 101.523 44.4368L102.305 46.2775ZM107.458 33.5067C105.355 28.5571 99.6372 26.2499 94.6876 28.3535L95.4699 30.1941C99.4029 28.5226 103.946 30.356 105.618 34.289L107.458 33.5067ZM94.6876 28.3535C89.738 30.457 87.4308 36.1746 89.5344 41.1242L91.375 40.342C89.7035 36.409 91.5369 31.8656 95.4699 30.1941L94.6876 28.3535ZM89.5344 41.1242C91.6379 46.0738 97.3556 48.381 102.305 46.2775L101.523 44.4368C97.5899 46.1083 93.0465 44.275 91.375 40.342L89.5344 41.1242ZM103.967 44.2004L109.897 50.1309L111.311 48.7168L105.382 42.7863L103.967 44.2004Z" fill="#0AA5FF" class="svg__fill--default-cyan-03"/>
</svg>

<svg width="200" height="160" viewBox="0 0 200 160" fill="none" xmlns="http://www.w3.org/2000/svg" class="svg__illustration-research">
  <path d="M42.116 125.756h66.081M113.705 125.756h12.015M130.724 125.756h4.005" stroke="#00E0E0" stroke-width="1.5" class="svg__stroke--help-green-03"/>
  <path d="m79.541 144.155 1.096.568v-18.966h-18.26v18.966l1.096-.568 8.034-4.168 8.034 4.168Z" fill="#0AA5FF" stroke="#0AA5FF" stroke-width="1.5" stroke-linecap="square" class="svg__fill--default-cyan-03 svg__stroke--default-cyan-03"/>
  <path fill-rule="evenodd" clip-rule="evenodd" d="M172.861 152.809h8.425v1.5h-6.613l.102.064H39.613c-11.337 0-20.528-9.191-20.528-20.528 0-11.337 9.19-20.528 20.528-20.528h135.162l-.11.07h6.621v1.5h-8.431c-2.529 2.49-6.66 8.202-6.66 18.958 0 10.763 4.137 16.477 6.666 18.964Zm-2.056 0a20.917 20.917 0 0 1-1.565-2.051c-2.312-3.444-4.545-8.867-4.545-16.913s2.233-13.469 4.545-16.913a20.878 20.878 0 0 1 1.561-2.045h-.09v-.07H39.613c-10.509 0-19.028 8.519-19.028 19.028 0 10.509 8.52 19.028 19.028 19.028H170.71v-.064h.094Z" fill="#0B6AB7" class="svg__fill--primary-blue-03"/>
  <path d="M132.497 95.398h-45.07M83.922 95.398h-4.005" stroke="#00E0E0" stroke-width="1.5" class="svg__stroke--help-green-03"/>
  <path d="m96.743 105.142-.964.287V95.399h16.082V105.429l-.964-.287-7.077-2.106-7.077 2.106Z" fill="#0AA5FF" stroke="#0AA5FF" stroke-width="1.5" stroke-linecap="square" class="svg__fill--default-cyan-03 svg__stroke--default-cyan-03"/>
  <path fill-rule="evenodd" clip-rule="evenodd" d="M23.347 113.381h-4.264v1.5h1.889c-.08.038-.123.056-.123.056h140.96c8.135 0 14.73-6.595 14.73-14.73 0-8.135-6.595-14.73-14.73-14.73H20.849l.134.06h-1.9v1.5h4.27c2.533 1.978 6.076 6.023 6.076 13.17 0 7.154-3.55 11.199-6.082 13.174Zm2.284 0c.2-.193.401-.397.603-.613 2.37-2.531 4.695-6.569 4.695-12.561s-2.326-10.03-4.695-12.561c-.2-.214-.4-.416-.598-.608h4.023v-.061h132.15c7.307 0 13.23 5.923 13.23 13.23s-5.923 13.23-13.23 13.23H29.659v-.056H25.63Z" fill="#0B6AB7" class="svg__fill--primary-blue-03"/>
  <path d="m100.184 6.347 23.089 9.563L132.837 39l-9.564 23.088-23.089 9.563-23.088-9.563-9.564-23.089 9.564-23.089 23.088-9.563Z" stroke="#0B6AB7" stroke-width="1.5" class="svg__stroke--primary-blue-03"/>
  <path d="m100.184 10.781 19.954 8.265L128.403 39m-28.219 28.219-19.953-8.265-8.265-19.954" stroke="#FFD600" stroke-width="1.5" class="svg__stroke--secondary-yellow-03"/>
  <path d="m105.382 42.786-.707-.707-1.415 1.414.707.707 1.415-1.414Zm4.515 7.345.707.707 1.414-1.414-.707-.707-1.414 1.414Zm-7.592-3.854c4.95-2.103 7.257-7.82 5.153-12.77l-1.84.782a7.738 7.738 0 0 1-4.095 10.148l.782 1.84Zm5.153-12.77c-2.103-4.95-7.82-7.257-12.77-5.154l.782 1.841a7.738 7.738 0 0 1 10.148 4.095l1.84-.782Zm-12.77-5.154c-4.95 2.104-7.257 7.822-5.154 12.771l1.841-.782a7.738 7.738 0 0 1 4.095-10.148l-.782-1.84Zm-5.154 12.771c2.104 4.95 7.822 7.257 12.771 5.153l-.782-1.84a7.738 7.738 0 0 1-10.148-4.095l-1.84.782Zm14.433 3.076 5.93 5.93 1.414-1.413-5.929-5.93-1.415 1.413Z" fill="#0AA5FF" class="svg__fill--default-cyan-03"/>
</svg>
